icons/evolvere-blue-folders-flat-vivid-dark-fallback/apps/64/kodi.svg

<?xml version="1.0" encoding="UTF-8" standalone="no"?>
<!-- Created with Inkscape (http://www.inkscape.org/) -->

<svg
   xmlns:dc="http://purl.org/dc/elements/1.1/"
   xmlns:cc="http://creativecommons.org/ns#"
   xmlns:rdf="http://www.w3.org/1999/02/22-rdf-syntax-ns#"
   xmlns:svg="http://www.w3.org/2000/svg"
   xmlns="http://www.w3.org/2000/svg"
   xmlns:sodipodi="http://sodipodi.sourceforge.net/DTD/sodipodi-0.dtd"
   xmlns:inkscape="http://www.inkscape.org/namespaces/inkscape"
   width="64"
   height="64"
   id="svg13094"
   version="1.1"
   inkscape:version="0.48.4 r9939"
   sodipodi:docname="kodi.svg">
  <sodipodi:namedview
     id="base"
     pagecolor="#ffffff"
     bordercolor="#666666"
     borderopacity="1.0"
     inkscape:pageopacity="0"
     inkscape:pageshadow="2"
     inkscape:zoom="11.313709"
     inkscape:cx="33.225731"
     inkscape:cy="31.764181"
     inkscape:document-units="px"
     inkscape:current-layer="svg13094"
     showgrid="true"
     inkscape:snap-bbox="true"
     inkscape:bbox-paths="true"
     inkscape:bbox-nodes="true"
     inkscape:snap-bbox-edge-midpoints="true"
     inkscape:snap-bbox-midpoints="true"
     inkscape:object-paths="true"
     inkscape:snap-intersection-paths="true"
     inkscape:object-nodes="true"
     inkscape:snap-smooth-nodes="true"
     inkscape:snap-midpoints="true"
     inkscape:snap-object-midpoints="true"
     inkscape:snap-center="true"
     showguides="true"
     inkscape:guide-bbox="true"
     inkscape:window-width="1920"
     inkscape:window-height="1022"
     inkscape:window-x="-5"
     inkscape:window-y="23"
     inkscape:window-maximized="1"
     inkscape:snap-global="true"
     fit-margin-top="0"
     fit-margin-left="0"
     fit-margin-right="0"
     fit-margin-bottom="0"
     showborder="true"
     inkscape:showpageshadow="false"
     inkscape:snap-page="true">
    <inkscape:grid
       type="xygrid"
       id="grid3075"
       empspacing="5"
       visible="true"
       enabled="true"
       snapvisiblegridlinesonly="true"
       originx="1.6362304e-08px"
       originy="18px" />
  </sodipodi:namedview>
  <defs
     id="defs13096" />
  <metadata
     id="metadata13099">
    <rdf:RDF>
      <cc:Work
         rdf:about="">
        <dc:format>image/svg+xml</dc:format>
        <dc:type
           rdf:resource="http://purl.org/dc/dcmitype/StillImage" />
        <dc:title />
      </cc:Work>
    </rdf:RDF>
  </metadata>
  <path
     inkscape:connector-curvature="0"
     style="color:#000000;fill:#1d577c;fill-opacity:1;fill-rule:nonzero;stroke:none;stroke-width:2.28571415000000000;marker:none;visibility:visible;display:inline;overflow:visible;enable-background:accumulate"
     d="m 0,4 0,30 0,28 2,2 30,0 30,0 2,-2 L 64,34 64,4 32,4 0,4 z"
     id="path6383" />
  <path
     inkscape:connector-curvature="0"
     style="color:#000000;fill:#308dc0;fill-opacity:1;fill-rule:nonzero;stroke:none;stroke-width:2.28571415000000000;marker:none;visibility:visible;display:inline;overflow:visible;enable-background:accumulate"
     d="M 2,0 0,1 0,4 32,4 64,4 64,1 62,0 32,0 2,0 z"
     id="path6502" />
  <path
     inkscape:connector-curvature="0"
     style="fill:#46caff;fill-opacity:0.4061372;fill-rule:nonzero"
     d="M 0,3 0,6 2,4 z"
     id="path4298-8"
     sodipodi:nodetypes="cccc" />
  <path
     d="M 64,6 62,4 64,3 z"
     id="path3028-4"
     style="fill:#1f0700;fill-opacity:0.13759861"
     inkscape:connector-curvature="0" />
  <path
     style="color:#000000;fill:#31afe1;fill-opacity:1;fill-rule:evenodd;stroke-width:1;stroke-linecap:butt;stroke-linejoin:miter;stroke-miterlimit:4;stroke-opacity:1;stroke-dasharray:none;stroke-dashoffset:0;marker:none;visibility:visible;display:inline;overflow:visible;enable-background:accumulate"
     d="M 32.0625 11 C 31.630778 10.999845 31.196639 11.208004 30.78125 11.625 C 29.01418 13.399645 27.235327 15.16236 25.46875 16.9375 C 25.022299 17.386668 24.601281 17.867719 24.125 18.28125 C 23.532361 18.795256 23.36391 19.408695 23.375 20.1875 C 23.41469 22.878546 23.375 25.558211 23.375 28.25 C 23.375 31.046966 23.3715 33.859532 23.375 36.65625 C 23.375 36.865862 23.38548 37.080795 23.4375 37.28125 C 23.606368 37.928893 24.034813 38.029981 24.5 37.5625 C 27.010334 35.040727 29.521163 32.522764 32.03125 30 C 34.87365 27.144383 37.689591 24.294107 40.53125 21.4375 C 41.356606 20.607962 41.356853 19.704784 40.53125 18.875 C 38.128154 16.461126 35.747094 14.038131 33.34375 11.625 C 32.928607 11.208128 32.494222 11.000155 32.0625 11 z M 45.90625 24.90625 C 45.478719 24.906436 45.049329 25.10503 44.65625 25.5 C 42.239594 27.927238 39.821919 30.35228 37.40625 32.78125 C 36.58579 33.605343 36.587796 34.521389 37.40625 35.34375 C 39.808114 37.758366 42.221903 40.148378 44.625 42.5625 C 45.467366 43.408826 46.348586 43.436403 47.1875 42.59375 C 49.515901 40.254613 51.854169 37.896935 54.1875 35.5625 C 54.535589 35.214303 54.851594 34.858319 55 34.375 L 55 33.75 C 54.853319 33.266186 54.535836 32.910698 54.1875 32.5625 C 51.840364 30.214207 49.498949 27.852253 47.15625 25.5 C 46.763171 25.105277 46.333781 24.906064 45.90625 24.90625 z M 17 25.5625 C 16.836371 25.588357 16.744255 25.72292 16.625 25.84375 C 14.220424 28.283114 11.809347 30.74764 9.40625 33.1875 C 8.8683415 33.733925 8.8661202 34.487547 9.40625 35.03125 C 10.711091 36.344849 12.006919 37.65614 13.3125 38.96875 C 14.441817 40.104414 15.586967 41.241068 16.71875 42.375 C 17.041201 42.698202 17.335816 42.647377 17.5 42.21875 C 17.583822 42.000724 17.624014 41.734359 17.625 41.5 C 17.6337 39.030196 17.625 36.563554 17.625 34.09375 C 17.625 31.613553 17.6275 29.1362 17.625 26.65625 C 17.62475 26.494154 17.61692 26.316861 17.59375 26.15625 C 17.557264 25.897143 17.445608 25.69175 17.1875 25.59375 C 17.119891 25.568136 17.054543 25.553881 17 25.5625 z M 32.15625 38.71875 C 31.726993 38.720052 31.306848 38.910229 30.90625 39.3125 C 28.496004 41.732809 26.09676 44.141944 23.6875 46.5625 C 22.856462 47.397977 22.854502 48.318794 23.6875 49.15625 C 26.015654 51.496129 28.33278 53.811669 30.65625 56.15625 C 31.001628 56.50519 31.364512 56.847307 31.84375 57 L 32.46875 57 C 32.936156 56.867353 33.289735 56.556825 33.625 56.21875 C 35.967946 53.854123 38.307881 51.516669 40.65625 49.15625 C 41.480143 48.328692 41.483825 47.394512 40.65625 46.5625 C 38.247237 44.141201 35.847252 41.732561 33.4375 39.3125 C 33.03912 38.912221 32.585507 38.717448 32.15625 38.71875 z "
     id="path17" />
</svg>

<svg xmlns="http://www.w3.org/2000/svg" viewBox="0 0 64 64"><g color="#000"><path d="m0 4v30 28l2 2h30 30l2-2v-28-30h-32-32" fill="#1d577c"/><path d="m2 0l-2 1v3h32 32v-3l-2-1h-30-30" fill="#308dc0"/></g><path d="m0 3v3l2-2z" fill="#46caff" fill-opacity=".406"/><path d="m64 6l-2-2 2-1z" fill="#1f0700" fill-opacity=".138"/><path d="m32.06 11c-.432 0-.866.208-1.281.625-1.767 1.775-3.546 3.537-5.313 5.313-.446.449-.867.93-1.344 1.344-.593.514-.761 1.127-.75 1.906.04 2.691 0 5.371 0 8.06 0 2.797-.003 5.61 0 8.406 0 .21.01.425.063.625.169.648.597.749 1.063.281 2.51-2.522 5.02-5.04 7.531-7.563 2.842-2.856 5.658-5.706 8.5-8.563.825-.83.826-1.733 0-2.563-2.403-2.414-4.784-4.837-7.188-7.25-.415-.417-.85-.625-1.281-.625m13.844 13.906c-.428 0-.857.199-1.25.594-2.417 2.427-4.834 4.852-7.25 7.281-.82.824-.818 1.74 0 2.563 2.402 2.415 4.816 4.805 7.219 7.219.842.846 1.724.874 2.563.031 2.328-2.339 4.667-4.697 7-7.03.348-.348.664-.704.813-1.188v-.625c-.147-.484-.464-.839-.813-1.188-2.347-2.348-4.689-4.71-7.03-7.06-.393-.395-.822-.594-1.25-.594m-28.906.656c-.164.026-.256.16-.375.281-2.405 2.439-4.816 4.904-7.219 7.344-.538.546-.54 1.3 0 1.844 1.305 1.314 2.601 2.625 3.906 3.938 1.129 1.136 2.274 2.272 3.406 3.406.322.323.617.272.781-.156.084-.218.124-.484.125-.719.009-2.47 0-4.936 0-7.406 0-2.48.003-4.958 0-7.438 0-.162-.008-.339-.031-.5-.036-.259-.148-.465-.406-.563-.068-.026-.133-.04-.188-.031m15.16 13.156c-.429.001-.849.191-1.25.594-2.41 2.42-4.809 4.829-7.219 7.25-.831.835-.833 1.756 0 2.594 2.328 2.34 4.645 4.655 6.969 7 .345.349.708.691 1.188.844h.625c.467-.133.821-.443 1.156-.781 2.343-2.365 4.683-4.702 7.03-7.06.824-.828.828-1.762 0-2.594-2.409-2.421-4.809-4.83-7.219-7.25-.398-.4-.852-.595-1.281-.594" fill="#31afe1" fill-rule="evenodd" color="#000"/></svg>
